X:3
T:The Union Reel
C:trad. arr. Quilty
R:reel
H:transcribed by Henrik Norbeck
Z:id:Quilty-3
M:C|
K:A
e2{c}BA eA{c}BA|eA{c}BA Bcdf|1 ~e2BA eA{c}BA|Bcdc BAFA:|2 ~e3c dcBA|FABc d3z||
K:D
|:df~f2 d2eA|df~f2 afef|df~f2 dfec|1 dcBA FABc:|2 dcBA Bcdf||
